X:1
T:Der evangelische Kirchenchor
T:Jesus soll die Losung sein
T:Max Reger
T:Text: Benjamin Schmolck
T:Jesus soll die Losung sein
T:Nr. 6 aus Der evangelische Kirchenchor, WoO VI/17 
T:CPDL - Creative Commons Attribution Non Commercial 3.0
C:Max Reger
Z:Benjamin Schmolck
Z:CPDL - Creative Commons Attribution Non Commercial 3.0
%%score [ ( 1 2 ) ( 3 4 ) ]
L:1/8
Q:1/4=60
M:4/4
K:G
V:1 treble nm="Sopran\nAlt"
V:2 treble 
V:3 bass nm="Tenor\nBass"
V:4 bass 
V:1
"^Ziemlich langsam"!p!!<(! B2 B2 d2 A2!<)! | GA!>(! B2 A4!>)! |!<(! A2 A2 B2!<)! d2 | e2 d2 c4 | %4
w: 1.~Je- sus soll die|Lo- * sung sein,|da ein neu- es|Jahr er- schie-|
w: 2.~Je- su Na- men,|Je- * su Wort|soll bei uns in|Zi- on schal-|
w: 3.~Je- sus, al- ler|Bür- * ger Heil,|un- serm Ort ein|Gna- den- zei-|
 B8 |!p!!<(! B2 B2 d2 A2!<)! | GA!>(! B2 A4!>)! |!<(! A2 A2 B2!<)! d2 | e2 d2 c4 | B8 | %10
w: nen.|Je- su Na- me|soll * al- lein|de- nen zum Pa-|nie- re die-|nen,|
w: len;|und so oft wir|an * den Ort,|der nach ihm ge-|nannt ist, wal-|len,|
w: chen,|uns- res Lan- des|bes- * tes Teil,|dem kein Klein- od|zu ver- glei-|chen,|
!mf!!<(! A2 A2 B^c!<)! d2 |!>(! d2 ^c2 d4!>)! |!<(! d2 d2!<)!!f! e2 =c2 | %13
w: die in sei- * nem|Bun- de stehn|und auf sei- nem|
w: ma- che sei- * nes|Na- mens Ruhm|un- ser Herz zum|
w: Je- sus, un- * ser|Schutz und Hort,|sei die Lo- sung|
[Q:1/4=56]"^poco rit."!>(! B2 A2!>)!!p! !fermata!G4 |] %14
w: We- ge gehn.|
w: Hei- lig- tum.|
w: fort und fort.|
V:2
 D2 E2 F2 E2 | E2 G2 F4 | E2 F2 G2 G2 | G2 G^G (A3 =G) | F8 | D2 E2 F2 E2 | E2 G2 F4 | %7
 E2 F2 G2 G2 | G2 G!>(!^G (A3 =G) | F8!>)! | E2 F2 G2 F2 | E2 FG F4 | G2 A2 ^G2 EF | =G2 F2 D4 |] %14
V:3
 G,2 G,2 A,2 A,2 | B,C D2 D4 | A,2 D2 D2 D2 | C2 D2 E4 | ^D8 | G,2 G,2 A,2 A,2 | B,C D2 D4 | %7
 A,2 D2 D2 D2 | C2 D2 E4 | ^D8 | A,2 D2 DE D^C | B,2 A,2 A,4 | B,2 D2 B,2 C2 | D3 C B,4 |] %14
V:4
 G,2 E,2 D,2 C,2 | E,2 B,,C, D,4 | ^C,2 D,2 G,2 B,,2 | C,2 B,,2 A,,4 | B,,8 | G,2 E,2 D,2 C,2 | %6
 E,2 B,,C, D,4 | ^C,2 D,2 G,2 B,,2 | C,2 B,,2 A,,4 | B,,8 | ^C,2 D,2 G,2 B,A, | G,2 A,2 D,4 | %12
 G,2 =F,2 E,2 A,,2 | B,,C, D,2 !fermata![G,,D,]4 |] %14

